dist/images/icons/approval.svg

<svg width="27" height="26" viewBox="0 0 27 26" fill="none" xmlns="http://www.w3.org/2000/svg">
<path d="M3.82812 13.2074C3.52625 13.2074 3.28125 13.4524 3.28125 13.7542C3.28125 14.0561 3.52625 14.3011 3.82812 14.3011C4.13 14.3011 4.375 14.0561 4.375 13.7542C4.375 13.4524 4.13 13.2074 3.82812 13.2074Z" fill="#00B4E3"/>
<path d="M27 15.1214C27 14.3492 26.6422 13.6593 26.0841 13.2078C26.7953 12.6335 27.1067 11.7445 26.9666 10.8839C26.7763 9.7143 25.6888 8.83236 24.4367 8.83236C23.8333 8.83236 19.869 8.83236 19.2273 8.83236L19.3894 8.3458C20.3163 5.56593 19.4555 2.59552 17.4155 0.857717C16.2761 -0.125237 14.3322 0.202506 13.7351 1.82875C13.6934 1.94206 13.6905 2.06598 13.7267 2.18121C14.181 3.62616 14.1874 4.59774 13.7489 5.5347C13.2943 6.50644 12.3161 7.52675 10.4781 8.94638C10.037 9.28708 9.65132 9.49533 9.27841 9.69675C8.69095 10.014 8.13319 10.3152 7.55657 11.0198H6.5625V10.4729C6.5625 10.1709 6.31766 9.92605 6.01562 9.92605H0.546875C0.244836 9.92605 0 10.1709 0 10.4729V24.6917C0 24.9937 0.244836 25.2386 0.546875 25.2386H6.01562C6.31766 25.2386 6.5625 24.9937 6.5625 24.6917V23.0511H8.62987C10.2198 24.4634 12.2605 25.2386 14.4011 25.2386C15.6633 25.2386 19.8694 25.2386 21.2578 25.2386C22.6181 25.2386 23.7188 24.1381 23.7188 22.7776C23.7188 22.2721 23.5654 21.8017 23.3029 21.4104H23.4453C24.8056 21.4104 25.9062 20.31 25.9062 18.9495C25.9062 18.3783 25.7101 17.8525 25.3825 17.4344C26.317 17.0944 27 16.1947 27 15.1214ZM5.46875 24.1449H1.09375V11.0199H5.46875V24.1449ZM24.5391 16.4886C24.0072 16.4886 19.85 16.4886 19.2891 16.4886C18.9871 16.4886 18.7422 16.7334 18.7422 17.0355C18.7422 17.3375 18.9871 17.5824 19.2891 17.5824H23.4453C24.1992 17.5824 24.8125 18.1957 24.8125 18.9495C24.8125 19.7053 24.2013 20.3167 23.4453 20.3167C21.9114 20.3167 20.5416 20.3167 19.2891 20.3167C18.9871 20.3167 18.7422 20.5616 18.7422 20.8636C18.7422 21.1656 18.9871 21.4105 19.2891 21.4105H21.2578C22.0117 21.4105 22.625 22.0238 22.625 22.7777C22.625 23.5334 22.0138 24.1449 21.2578 24.1449C19.8266 24.1449 15.5742 24.1449 14.4011 24.1449C12.4654 24.1449 10.6236 23.4202 9.21486 22.1046C9.11358 22.01 8.98014 21.9574 8.84156 21.9574H6.5625V12.1136H7.82438C7.99823 12.1136 8.16169 12.031 8.26477 11.891C8.75805 11.2209 9.19435 10.9853 9.79827 10.6592C10.1905 10.4473 10.6351 10.2072 11.1469 9.81208C14.8911 6.91994 15.7479 5.14801 14.8306 2.05078C15.1932 1.35357 16.0977 1.1655 16.74 1.72025C18.4831 3.24395 19.1158 5.70888 18.3519 8.00007L18.0746 8.83247H17.375C17.073 8.83247 16.8281 9.0773 16.8281 9.37934C16.8281 9.68138 17.073 9.92622 17.375 9.92622C18.2148 9.92622 23.574 9.92622 24.4368 9.92622C25.1585 9.92622 25.7819 10.4135 25.8871 11.0597C26.0296 11.9347 25.3572 12.6606 24.5391 12.6606C23.9788 12.6606 19.8227 12.6606 19.2891 12.6606C18.9871 12.6606 18.7422 12.9054 18.7422 13.2075C18.7422 13.5095 18.9871 13.7543 19.2891 13.7543C19.821 13.7543 23.9782 13.7543 24.5391 13.7543C25.293 13.7543 25.9063 14.3677 25.9063 15.1215C25.9062 15.8771 25.295 16.4886 24.5391 16.4886Z" fill="#00B4E3"/>
<path d="M3.82812 15.3949C3.52609 15.3949 3.28125 15.6397 3.28125 15.9417V21.4105C3.28125 21.7125 3.52609 21.9574 3.82812 21.9574C4.13016 21.9574 4.375 21.7125 4.375 21.4105V15.9417C4.375 15.6397 4.13016 15.3949 3.82812 15.3949Z" fill="#00B4E3"/>
</svg>

<svg width="27" height="26" viewBox="0 0 27 26" fill="none" xmlns="http://www.w3.org/2000/svg"><path d="M3.828 13.207a.547.547 0 100 1.095.547.547 0 000-1.095z" fill="#00B4E3"/><path d="M27 15.121c0-.772-.358-1.462-.916-1.913a2.463 2.463 0 00.883-2.324c-.19-1.17-1.278-2.052-2.53-2.052h-5.21l.162-.486c.927-2.78.067-5.75-1.973-7.488-1.14-.983-3.084-.655-3.68.97a.546.546 0 00-.01.353c.455 1.445.461 2.417.023 3.354-.455.971-1.433 1.992-3.27 3.411-.442.341-.828.55-1.2.75-.588.318-1.146.62-1.722 1.324h-.995v-.547a.547.547 0 00-.546-.547H.546a.547.547 0 00-.546.547v14.219c0 .302.245.547.547.547h5.469a.547.547 0 00.546-.547v-1.64H8.63a8.66 8.66 0 005.771 2.187h6.857a2.46 2.46 0 002.045-3.829h.142a2.46 2.46 0 001.938-3.976A2.46 2.46 0 0027 15.121zM5.469 24.145H1.094V11.02h4.375v13.125zm19.07-7.656h-5.25a.547.547 0 100 1.093h4.156a1.366 1.366 0 110 2.734H19.29a.547.547 0 000 1.095h1.969a1.366 1.366 0 110 2.734H14.4a7.571 7.571 0 01-5.186-2.04.547.547 0 00-.373-.148h-2.28v-9.843h1.262a.547.547 0 00.44-.223c.494-.67.93-.906 1.534-1.232a9.16 9.16 0 001.349-.847c3.744-2.892 4.6-4.664 3.684-7.761.362-.697 1.267-.886 1.909-.33 1.743 1.523 2.376 3.988 1.612 6.28l-.277.831h-.7a.547.547 0 000 1.094h7.062c.721 0 1.345.488 1.45 1.134.143.875-.53 1.6-1.348 1.6h-5.25a.547.547 0 100 1.094h5.25a1.366 1.366 0 110 2.734z" fill="#00B4E3"/><path d="M3.828 15.395a.547.547 0 00-.547.547v5.468a.547.547 0 001.094 0v-5.468a.547.547 0 00-.547-.547z" fill="#00B4E3"/></svg>
